images/icons/share.svg

<svg fill="#222" height="24pt" viewBox="0 0 24 24" width="24pt" xmlns="http://www.w3.org/2000/svg"><path d="m18.265625 1.6875c-.152344-.152344-.378906-.195312-.574219-.113281-.199218.082031-.328125.273437-.328125.488281v2.820312c-2.855469.117188-4.285156 1.300782-4.503906 1.496094-1.441406 1.183594-2.425781 2.832032-2.785156 4.660156-.175781.882813-.210938 1.792969-.09375 2.6875.003906.007813.003906.019532.003906.027344l.113281.644532c.039063.21875.207032.386718.425782.429687.214843.039063.433593-.058594.546874-.25l.339844-.558594c1.035156-1.722656 2.324219-2.863281 3.832032-3.390625.679687-.242187 1.402343-.347656 2.121093-.3125v2.925782c0 .210937.128907.40625.328125.488281.199219.082031.425782.035156.578125-.117188l5.585938-5.617187c.207031-.207032.207031-.542969 0-.746094zm.15625 10.273438v-2.117188c0-.261719-.1875-.480469-.445313-.523438-.453124-.074218-1.660156-.1875-3.085937.3125-1.519531.53125-2.835937 1.578126-3.921875 3.121094 0-.507812.046875-1.011718.144531-1.507812.320313-1.625 1.136719-2.992188 2.425781-4.058594.011719-.007812.023438-.019531.035157-.027344.035156-.035156 1.378906-1.25 4.3125-1.226562h.003906c.292969 0 .53125-.238282.53125-.527344v-2.070312l4.3125 4.289062zm0 0"/><path d="m22.074219 17.105469c-.292969 0-.53125.238281-.53125.53125v2.234375c0 .875-.710938 1.585937-1.585938 1.585937h-17.3125c-.875 0-1.585937-.710937-1.585937-1.585937v-12.601563c0-.875.710937-1.585937 1.585937-1.585937h3.65625c.292969 0 .53125-.238282.53125-.527344 0-.292969-.238281-.53125-.53125-.53125h-3.65625c-1.460937.003906-2.644531 1.1875-2.644531 2.644531v12.601563c0 1.460937 1.183594 2.640625 2.644531 2.644531h17.3125c1.460938-.003906 2.644531-1.183594 2.644531-2.644531v-2.234375c0-.292969-.238281-.53125-.527343-.53125zm0 0"/></svg>

<?xml version="1.0" encoding="UTF-8"?>
<svg xmlns="http://www.w3.org/2000/svg" xmlns:xlink="http://www.w3.org/1999/xlink" width="24pt" height="24pt" viewBox="0 0 24 24" version="1.1" fill="#222">
<g id="surface1">
<path d="M 18.265625 1.6875 C 18.113281 1.535156 17.886719 1.492188 17.691406 1.574219 C 17.492188 1.65625 17.363281 1.847656 17.363281 2.0625 L 17.363281 4.882812 C 14.507812 5 13.078125 6.183594 12.859375 6.378906 C 11.417969 7.5625 10.433594 9.210938 10.074219 11.039062 C 9.898438 11.921875 9.863281 12.832031 9.980469 13.726562 C 9.984375 13.734375 9.984375 13.746094 9.984375 13.753906 L 10.097656 14.398438 C 10.136719 14.617188 10.304688 14.785156 10.523438 14.828125 C 10.738281 14.867188 10.957031 14.769531 11.070312 14.578125 L 11.410156 14.019531 C 12.445312 12.296875 13.734375 11.15625 15.242188 10.628906 C 15.921875 10.386719 16.644531 10.28125 17.363281 10.316406 L 17.363281 13.242188 C 17.363281 13.453125 17.492188 13.648438 17.691406 13.730469 C 17.890625 13.8125 18.117188 13.765625 18.269531 13.613281 L 23.855469 7.996094 C 24.0625 7.789062 24.0625 7.453125 23.855469 7.25 Z M 18.421875 11.960938 L 18.421875 9.84375 C 18.421875 9.582031 18.234375 9.363281 17.976562 9.320312 C 17.523438 9.246094 16.316406 9.132812 14.890625 9.632812 C 13.371094 10.164062 12.054688 11.210938 10.96875 12.753906 C 10.96875 12.246094 11.015625 11.742188 11.113281 11.246094 C 11.433594 9.621094 12.25 8.253906 13.539062 7.1875 C 13.550781 7.179688 13.5625 7.167969 13.574219 7.160156 C 13.609375 7.125 14.953125 5.910156 17.886719 5.933594 L 17.890625 5.933594 C 18.183594 5.933594 18.421875 5.695312 18.421875 5.40625 L 18.421875 3.335938 L 22.734375 7.625 Z M 18.421875 11.960938 "/>
<path d="M 22.074219 17.105469 C 21.78125 17.105469 21.542969 17.34375 21.542969 17.636719 L 21.542969 19.871094 C 21.542969 20.746094 20.832031 21.457031 19.957031 21.457031 L 2.644531 21.457031 C 1.769531 21.457031 1.058594 20.746094 1.058594 19.871094 L 1.058594 7.269531 C 1.058594 6.394531 1.769531 5.683594 2.644531 5.683594 L 6.300781 5.683594 C 6.59375 5.683594 6.832031 5.445312 6.832031 5.15625 C 6.832031 4.863281 6.59375 4.625 6.300781 4.625 L 2.644531 4.625 C 1.183594 4.628906 0 5.8125 0 7.269531 L 0 19.871094 C 0 21.332031 1.183594 22.511719 2.644531 22.515625 L 19.957031 22.515625 C 21.417969 22.511719 22.601562 21.332031 22.601562 19.871094 L 22.601562 17.636719 C 22.601562 17.34375 22.363281 17.105469 22.074219 17.105469 Z M 22.074219 17.105469 "/>
</g>
</svg>
